src/icons/task-ongoing.svg

<svg enable-background="new" height="32" width="32" xmlns="http://www.w3.org/2000/svg" xmlns:xlink="http://www.w3.org/1999/xlink"><filter id="a" color-interpolation-filters="sRGB"><feBlend in2="BackgroundImage" mode="darken"/></filter><path d="m7.8880842 1.6622863c-1.2334652.0243458-2.4712016.4083896-3.5600445 1.170081-2.9035845 2.0312483-3.60540456 6.0089618-1.5722984 8.9098877 2.0331274 2.900937 6.0126558 3.602116 8.9162517 1.570857 2.088055-1.460735 3.036664-3.9226044 2.650335-6.2780678-.090015-.5503531-.261311-1.0625645-.483509-1.5583211l-5.8235922 6.6484119-.6303524.744286-.7162993-.687041-2.7506227-2.7481034c-.3451012-.3447381-.3450691-.9720367 0-1.3167962.3450799-.3447595.9729549-.3447809 1.3180134 0l2.0629617 2.0610826 5.5227295-6.3138606c-.987295-1.1370646-2.300642-1.8598669-3.7068987-2.1076064-.4043959-.071222-.815519-.1029356-1.2266741-.0948203z" fill="#2ecc71" stroke-width="1.067797" transform="matrix(2.1851847 0 0 2.1851878 -1.48148 -1.629674)"/><g fill="#1d99f3" filter="url(#a)" transform="translate(-485.00137 250.99797)"/></svg>

<?xml version="1.0" encoding="UTF-8" standalone="no"?>
<svg
   xmlns:dc="http://purl.org/dc/elements/1.1/"
   xmlns:cc="http://creativecommons.org/ns#"
   xmlns:rdf="http://www.w3.org/1999/02/22-rdf-syntax-ns#"
   xmlns:svg="http://www.w3.org/2000/svg"
   xmlns="http://www.w3.org/2000/svg"
   xmlns:sodipodi="http://sodipodi.sourceforge.net/DTD/sodipodi-0.dtd"
   xmlns:inkscape="http://www.inkscape.org/namespaces/inkscape"
   height="32"
   width="32"
   version="1.1"
   id="svg11"
   sodipodi:docname="task-ongoing.svg"
   inkscape:version="0.92.4 5da689c313, 2019-01-14"
   style="enable-background:new">
  <metadata
     id="metadata17">
    <rdf:RDF>
      <cc:Work
         rdf:about="">
        <dc:format>image/svg+xml</dc:format>
        <dc:type
           rdf:resource="http://purl.org/dc/dcmitype/StillImage" />
        <dc:title />
      </cc:Work>
    </rdf:RDF>
  </metadata>
  <defs
     id="defs15" />
  <sodipodi:namedview
     pagecolor="#ffffff"
     bordercolor="#666666"
     borderopacity="1"
     objecttolerance="10"
     gridtolerance="10"
     guidetolerance="10"
     inkscape:pageopacity="0"
     inkscape:pageshadow="2"
     inkscape:window-width="1366"
     inkscape:window-height="703"
     id="namedview13"
     showgrid="false"
     inkscape:zoom="5.2149125"
     inkscape:cx="-5.4230442"
     inkscape:cy="4.4156678"
     inkscape:window-x="0"
     inkscape:window-y="0"
     inkscape:window-maximized="1"
     inkscape:current-layer="svg11" />
  <filter
     id="a"
     style="color-interpolation-filters:sRGB">
    <feBlend
       in2="BackgroundImage"
       mode="darken"
       id="feBlend2" />
  </filter>
  <g
     id="g18"
     transform="matrix(2.1851847,0,0,2.1851878,-1.4814796,-1.6296737)"
     style="fill:#2ecc71;fill-opacity:1">
    <path
       d="M 7.8880842,1.6622863 C 6.654619,1.6866321 5.4168826,2.0706759 4.3280397,2.8323673 1.4244552,4.8636156 0.72263514,8.8413291 2.7557413,11.742255 4.7888687,14.643192 8.7683971,15.344371 11.671993,13.313112 13.760048,11.852377 14.708657,9.3905076 14.322328,7.0350442 14.232313,6.4846911 14.061017,5.9724797 13.838819,5.4767231 L 8.0152268,12.125135 7.3848744,12.869421 6.6685751,12.18238 3.9179524,9.4342766 c -0.3451012,-0.3447381 -0.3450691,-0.9720367 0,-1.3167962 0.3450799,-0.3447595 0.9729549,-0.3447809 1.3180134,0 L 7.2989275,10.178563 12.821657,3.8647024 C 11.834362,2.7276378 10.521015,2.0048355 9.1147583,1.757096 8.7103624,1.685874 8.2992393,1.6541604 7.8880842,1.6622757 Z"
       id="path5"
       style="fill:#2ecc71;fill-opacity:1;stroke-width:1.06779659"
       inkscape:connector-curvature="0" />
  </g>
  <g
     style="fill:#1d99f3;fill-opacity:1;filter:url(#a)"
     id="g7"
     transform="translate(-485.00137,250.99797)" />
</svg>
